X:9
T:YNDRMTN1-  On Yonder High Mountains
S:from 'An Astronomer's Wife'
Q:1/4=120
L:1/4
M:3/4
K:G mixolydian
G|cec/B/|cGG/G/|AcA|G2||G|cdc/B/|\
cdc/d/|ecA|G2||c|deB/c/|dec/d/|\
ecA|E2||G/G/|cdc/B/|cGG/G/|BcA|G2|]


